X:18
T:Loka-Britas Polska
R:polska J
A:H\"alsingland
Z:id:hn-jp-18
M:3/4
L:1/16
K:D
e2-|e2g2 g2ag f2c2|efe2 d6d2|c3d e2f^g a3c|dcdf e2ea A4|
e2g2 g2ag f2c2|efe2 d6d2|c3d e2f^g a3c|1 c2d2 d6:|2 c2d2 d8||
K:Ddor
|:ABAG E2E2 F3G|A2Ac G2B2 B2A2|ABAG E2E2 F3G|A2Ac G2B2 B2A2|
ABAG E2E2 D3F|EFED ^C2C2 A4-|A2AG E2E2 F3G|A2c2 G2B2 B2A2|
A3^c d2e2 fefg|1 a2^c2 d8:|2 a2^c2 d6||
